X: 14765
T: Gan Ainm
R: polka
M: 2/4
K: Dmajor
F/G/|A/F/A/B/ A/g/f/e/|d/c/d/B/ AF/G/|A/F/A/B/ c/d/e/f/|ge eF/G/|
A/F/A/B/ A/g/f/e/|d/c/d/B/ AF/A/|G/F/G/A/ B/A/B/c/|dD D:|
F/G/|A/F/A/B/ A/F/D/c/|B/A/B/c/ B/G/G/F/|A/F/A/B/ A/F/E/D/|C/D/E/F/ E/F/G|
A/F/A/B/ A/F/D/c/|B/A/B/c/ B/G/B/c/|G/F/G/A/ B/A/B/e/|dD D:|

